X:391
T:Lads of Tain
R:Strathspey
B:The Athole Collection
M:C|
L:1/8
K:D
B|A<F F>A B<G GA d>A B<d|A<F F<A B<G G>B|
d>A G/F/E/D/ C<EE:|
c|d<fe<f d>AF>A|d<f g/f/e/d/ c<e e>f|d<f e>f d>AF>A|G>E G/F/E/D/ C<E E>c|
d<f e>f d>AF>A|d<f g/f/e/d/ c<e e>g|(3fed (3edc (3dcB (3AGF|G>E G/F/E/D/ C<EE||
